check.svg

<svg xmlns="http://www.w3.org/2000/svg" width="83" height="83" fill="#00438b" xmlns:v="https://vecta.io/nano"><path d="M69.0693 14.0919C61.811 6.83355 51.9666 2.75586 41.7017 2.75586S21.5924 6.83355 14.3341 14.0919 2.99805 31.1947 2.99805 41.4595 7.07574 61.5688 14.3341 68.8271s17.1028 11.3361 27.3676 11.3361 20.1093-4.0777 27.3676-11.3361 11.3361-17.1027 11.3361-27.3676-4.0777-20.1093-11.3361-27.3676zM41.7017 74.9756c-18.4804 0-33.51609-15.0353-33.51609-33.5161S23.2209 7.94342 41.7017 7.94342 75.2178 22.9787 75.2178 41.4595 60.1825 74.9756 41.7017 74.9756zm-5.8316-25.4013L23.9692 37.6735l-3.6681 3.6681 15.569 15.569 27.1534-27.1532-3.6682-3.668-23.4852 23.4849z"/></svg>

<svg width="83" height="83" viewBox="0 0 83 83" fill="none" xmlns="http://www.w3.org/2000/svg">
<path d="M69.0693 14.0919C61.811 6.83355 51.9666 2.75586 41.7017 2.75586C31.4369 2.75586 21.5924 6.83355 14.3341 14.0919C7.07574 21.3502 2.99805 31.1947 2.99805 41.4595C2.99805 51.7244 7.07574 61.5688 14.3341 68.8271C21.5924 76.0855 31.4369 80.1632 41.7017 80.1632C51.9666 80.1632 61.811 76.0855 69.0693 68.8271C76.3277 61.5688 80.4054 51.7244 80.4054 41.4595C80.4054 31.1947 76.3277 21.3502 69.0693 14.0919ZM41.7017 74.9756C23.2213 74.9756 8.18561 59.9403 8.18561 41.4595C8.18561 22.9787 23.2209 7.94342 41.7017 7.94342C60.1825 7.94342 75.2178 22.9787 75.2178 41.4595C75.2178 59.9403 60.1825 74.9756 41.7017 74.9756Z" fill="#00438B"/>
<path d="M35.8701 49.5743L23.9692 37.6735L20.3011 41.3416L35.8701 56.9106L63.0235 29.7574L59.3553 26.0894L35.8701 49.5743Z" fill="#00438B"/>
</svg>
